images/linkedin.svg

<svg xmlns="http://www.w3.org/2000/svg" fill="#e5e5e6" viewBox="0 0 512 512"><path d="M444.17,32H70.28C49.85,32,32,46.7,32,66.89V441.61C32,461.91,49.85,480,70.28,480H444.06C464.6,480,480,461.79,480,441.61V66.89C480.12,46.7,464.6,32,444.17,32ZM170.87,405.43H106.69V205.88h64.18ZM141,175.54h-.46c-20.54,0-33.84-15.29-33.84-34.43,0-19.49,13.65-34.42,34.65-34.42s33.85,14.82,34.31,34.42C175.65,160.25,162.35,175.54,141,175.54ZM405.43,405.43H341.25V296.32c0-26.14-9.34-44-32.56-44-17.74,0-28.24,12-32.91,23.69-1.75,4.2-2.22,9.92-2.22,15.76V405.43H209.38V205.88h64.18v27.77c9.34-13.3,23.93-32.44,57.88-32.44,42.13,0,74,27.77,74,87.64Z"/></svg>

<?xml version="1.0" encoding="UTF-8" standalone="no"?>
<!DOCTYPE svg PUBLIC "-//W3C//DTD SVG 1.1//EN" "http://www.w3.org/Graphics/SVG/1.1/DTD/svg11.dtd">
<svg width="100%" height="100%" viewBox="0 0 512 512" version="1.1" xmlns="http://www.w3.org/2000/svg" xmlns:xlink="http://www.w3.org/1999/xlink" xml:space="preserve" xmlns:serif="http://www.serif.com/" style="fill-rule:evenodd;clip-rule:evenodd;stroke-linejoin:round;stroke-miterlimit:2;">
    <path d="M444.17,32L70.28,32C49.85,32 32,46.7 32,66.89L32,441.61C32,461.91 49.85,480 70.28,480L444.06,480C464.6,480 480,461.79 480,441.61L480,66.89C480.12,46.7 464.6,32 444.17,32ZM170.87,405.43L106.69,405.43L106.69,205.88L170.87,205.88L170.87,405.43ZM141,175.54L140.54,175.54C120,175.54 106.7,160.25 106.7,141.11C106.7,121.62 120.35,106.69 141.35,106.69C162.35,106.69 175.2,121.51 175.66,141.11C175.65,160.25 162.35,175.54 141,175.54ZM405.43,405.43L341.25,405.43L341.25,296.32C341.25,270.18 331.91,252.32 308.69,252.32C290.95,252.32 280.45,264.32 275.78,276.01C274.03,280.21 273.56,285.93 273.56,291.77L273.56,405.43L209.38,405.43L209.38,205.88L273.56,205.88L273.56,233.65C282.9,220.35 297.49,201.21 331.44,201.21C373.57,201.21 405.44,228.98 405.44,288.85L405.43,405.43Z" style="fill:rgb(255,50,88);fill-rule:nonzero;"/>
</svg>
